packages/kaspersky-hexa-ui-icons/src/iconsSVGs/48/Remotedesktop.svg

<svg width="48" height="48" viewBox="0 0 48 48" fill="none" xmlns="http://www.w3.org/2000/svg">
<path fill-rule="evenodd" clip-rule="evenodd" d="M22 28H20V30H36V28H34V25H45V0H11V25H22V28ZM32 28H24V25H32V28ZM43 2V19H13V2H43ZM13 23V21H43V23H13ZM25 16H24V18H32V16H31V15H36V3H20V15H25V16ZM29 16H27V15H29V16ZM22 13V5H34V13H22ZM48 31.31V31.54C47.9968 32.7428 47.426 33.8734 46.46 34.59L30.05 46.59C28.8533 47.4921 27.3986 47.9864 25.9 48C25.1838 47.9995 24.4721 47.8882 23.79 47.67L12.21 44C10.3832 43.4209 8.39892 43.6161 6.71998 44.54L1.47998 47.42L0.47998 45.67L5.70998 42.79C7.87031 41.6066 10.4193 41.3539 12.77 42.09L24.35 45.77C25.8925 46.26 27.5767 45.9731 28.87 45L45.28 33C45.7428 32.6591 46.0113 32.1147 46 31.54V31.31C45.9979 30.673 45.6557 30.0857 45.1025 29.7699C44.5493 29.4541 43.8695 29.4579 43.32 29.78L31.55 36.78C31.5959 36.85 31.636 36.9235 31.67 37V37.07C32.2604 38.7636 31.4208 40.6229 29.76 41.3H29.63C29.2238 41.4664 28.7889 41.5513 28.35 41.55C27.9938 41.5515 27.6395 41.4975 27.3 41.39L17.42 38.15L18.04 36.25L28 39.55C28.3029 39.6644 28.6371 39.6644 28.94 39.55L29.07 39.49C29.7354 39.2207 30.0801 38.4833 29.86 37.8C29.7307 37.4199 29.4367 37.1186 29.06 36.98L15 31.46C12.8836 30.6198 10.5263 30.6198 8.40998 31.46L1.40998 34.26L0.62998 32.43L7.67998 29.63C10.2699 28.6103 13.1501 28.6103 15.74 29.63L29.74 35.08C29.897 35.1461 30.0476 35.2264 30.19 35.32L42.3 28.1C43.4606 27.4083 44.9027 27.3905 46.08 28.0535C47.2573 28.7165 47.9898 29.9589 48 31.31Z"  fill="currentColor"/>
</svg>

<svg xmlns="http://www.w3.org/2000/svg" width="48" height="48" fill="none" viewBox="0 0 48 48"><path fill="currentColor" fill-rule="evenodd" d="M22 28h-2v2h16v-2h-2v-3h11V0H11v25h11zm10 0h-8v-3h8zM43 2v17H13V2zM13 23v-2h30v2zm12-7h-1v2h8v-2h-1v-1h5V3H20v12h5zm4 0h-2v-1h2zm-7-3V5h12v8zm26 18.31v.23a3.81 3.81 0 0 1-1.54 3.05l-16.41 12A7 7 0 0 1 25.9 48a6.94 6.94 0 0 1-2.11-.33L12.21 44a7 7 0 0 0-5.49.54l-5.24 2.88-1-1.75 5.23-2.88a9.06 9.06 0 0 1 7.06-.7l11.58 3.68a5 5 0 0 0 4.52-.77l16.41-12a1.77 1.77 0 0 0 .72-1.46v-.23a1.78 1.78 0 0 0-2.68-1.53l-11.77 7q.069.1051.12.22v.07c.5904 1.6936-.2492 3.5529-1.91 4.23h-.13a3.35 3.35 0 0 1-1.28.25 3.43 3.43 0 0 1-1.05-.16l-9.88-3.24.62-1.9 9.96 3.3c.3029.1144.6371.1144.94 0l.13-.06c.6654-.2693 1.0101-1.0067.79-1.69a1.33 1.33 0 0 0-.8-.82L15 31.46a8.93 8.93 0 0 0-6.59 0l-7 2.8-.78-1.83 7.05-2.8a11 11 0 0 1 8.06 0l14 5.45c.157.0661.3076.1464.45.24L42.3 28.1a3.77 3.77 0 0 1 5.7 3.21" clip-rule="evenodd"/></svg>
